X:1
T:Funeral Rag
T:Funeral Rag
T:Max Kortlander
T:As Played by the Composer
T:Unpublished
T:Unpublished
T:Unpublished
T:Unpublished
T:Unpublished
T:Unpublished
C:Max Kortlander
Z:Unpublished
%%score { ( 1 3 ) | ( 2 4 ) }
L:1/8
Q:1/4=180
M:4/4
K:F
V:1 treble nm="Piano" snm="Pno."
V:3 treble 
V:2 bass 
V:4 bass 
V:1
"^Largo" !>![F,A,D]8 | !>![G,B,D]8 | !>![F,A,D]8 | !>![A,DF]4 !>!E4 |{[A,DE]F} E4 D4 | %5
 [F,G,B,D]4 ^C4 |"^Ragtime tempo" !>![F,A,D]2 !>![CEGBc]2 !>![FBdf]2 !>![GBcg]2 | %7
 [Acfa]2 [^G^g][Acfa]- [Acfa][Aa] [B_eb][=B=b] | %8
 [c=eg_bc'][dd'] [A_da][Bcegb]- [Bcegb][Aa] [GBeg]2 | [FAcf]2 [G,A,^C]2 [F,A,D]2"_R.H." z2 | %10
 z4 z e [G_da]^G || A[=df] _A[F=A^ce]- [FAce]e [GAca]^G | A[df]- [df]!>![GA^ce]- [GAce]e [GAca]^G | %13
 [Adf]_A [G=A^ce]_G [FAd]A [=Gc](3A/B/c/ | [Fd][F_d] [DB][^CGA]- [CGA]e [GA^ca]^G | %15
 A[df]- [df][GA^ce]- [GAce]_e [GAca]^G | A[df]- [df]!>![GA^ce]- [GAce]e [GAca]^G | %17
 [Adf]2 [G^cg]2 [Adfa]2 [dfad']2 | %18
 [fad'f'][dfad']- [dfad'][dfad']- [dfad'][=B=b]/[cc']/ [^c^c']/[dd']/[dd']/[ee']/ | %19
 .[ff'].[ff'] .[df_a=bd'].[dfabd'] .[=Bdfab].[Bdfab] .[dfabd'].[dfab] | %20
 [eac'e'][ceac']- [ceac'][Acea]- [Acea][B^gb] [cgc'][cgc'] | %21
!8va(! [f_a=bd'f'][fabd'f']!8va)! [dfabd'][dfabd'] [=Bdfab][Bdfab] [dfabd'][dfabd'] | %22
 [eac'e'][ceac']- [ceac'][GA^cea]- [GAcea]e [GAcea]^G | A[=df] _A[F=A^ce]- [FAce]e [GAca]^G | %24
 A[df]- [df]!>![GA^ce]- [GAce]e [GAca]^G | [Adf]2 [GA^ce]2 [FAd]2 [G,A,^C]2 | %26
 [F,A,D][G,A,^C]- [G,A,C][F,A,D]- [F,A,D][A,A] [Dd][Ee] | [FAf][EAe] [Dd][A,DFA]- [A,DFA]4- | %28
 [A,DFA]4 z [Cc] [FBf][Gg] | [Acea][Gg] [FBf][CFAc]- [CFAc]4- | [CFAc]4 z [Aa] [B_e_gb][=B=b] | %31
 [c=e=g_bc'][dd'] [cegbc'][=B=b] [c_e_gc'][dd'] [cegc'][=B=b] | %32
 [_B_df_b][Aa] [Gdg][Bceb]- [Bceb][Aa] [Gceg][^G^g] | %33
 [Acfa][^G^g] [Acfa][Gg] [=GA^ce=g][^F^f] [Gceg][Ff] | %34
 [=FAd=f][EG^ce]- [EGce][DFAd]- [DFAd][^C^c] [DGAd][Ee] | [FAdf][Ee] [Dd][A,DFA]- [A,DFA]4- | %36
 [A,DFA]4 z [Cc] [Ff][Gg] | [Acfa][Gg] [FBf][CFAc]- [CFAc]4- | [CFAc]4 z [F,A,D]- [F,A,D]^C | %39
 [F,A,D]3 (3A,/=B,/^C/ [G,D]3 (3A,/B,/C/ | [F,D][A,F] [F,D][B,DF]- [B,DF][F,A,] [B,CE][F,A,] | %41
 [B,DE]F [F,E][G,B,D]- [G,B,D]^C [G,A,D]C | !>![F,A,D]2 !>![CEGBc]2 !>![FBdf]2 !>![GBcg]2 | %43
 [Acfa]2 [^G^g][Acfa]- [Acfa][Aa] [Beb][=B=b] | %44
 [c=eg_bc'][dd'] [A_da][Bcegb]- [Bcegb][Aa] [GBeg]2 | [FAcf]2 [G,A,^C]2 [F,A,D]2"_R.H." z2 | %46
 z4 z _e [G_da]^G | A[=df] _A[F=A^ce]- [FAce]e [GAca]^G | A[df]- [df]!>![GA^ce]- [GAce]e [GAca]^G | %49
 [Adf]_A [G=A^ce]_G [FAd]A [=Gc](3A/B/c/ | [Fd][F_d] [DB][^CGA]- [CGA]e [GA^ca]^G | %51
 A[df]- [df][GA^ce]- [GAce]_e [GAca]^G | A[df]- [df]!>![GA^ce]- [GAce]e [GAca]^G | %53
 [Adf]2 [G^cg]2 [Adfa]2 [dfad']2 | %54
 [fad'f'][dfad']- [dfad'][dfad']- [dfad'][=B=b]/[cc']/ [^c^c']/[dd']/[dd']/[ee']/ | %55
 .[ff'].[ff'] .[df_a=bd'].[dfabd'] .[=Bdfab].[Bdfab] .[dfabd'].[dfab] | %56
 [eac'e'][ceac']- [ceac'][Acea]- [Acea][B^gb] [cgc'][cgc'] | %57
!8va(!!8va(! [f_a=bd'f'][fabd'f']!8va)!!8va)! [dfabd'][dfabd'] [=Bdfab][Bdfab] [dfabd'][dfabd'] | %58
 [eac'e'][ceac']- [ceac'][GA^cea]- [GAcea]e [GAcea]^G | A[=df] _A[F=A^ce]- [FAce]e [GAca]^G | %60
 A[df]- [df]!>![GA^ce]- [GAce]e [GAca]^G | [Adf]2 [GA^ce]2 [FAd]2 [G,A,^C]2 | %62
 [F,A,D][G,A,^C]- [G,A,C][F,A,D]- [F,A,D][A,A] [Dd][Ee] | [FAf][EAe] [Dd][A,DFA]- [A,DFA]4- | %64
 [A,DFA]4 z [Cc] [FBf][Gg] | [Acea][Gg] [FBf][CFAc]- [CFAc]4- | [CFAc]4 z [Aa] [B_e_gb][=B=b] | %67
 [c=e=g_bc'][dd'] [cegbc'][=B=b] [c_e_gc'][dd'] [cegc'][=B=b] | %68
 [_B_df_b][Aa] [Gdg][Bceb]- [Bceb][Aa] [Gceg][^G^g] | %69
 [Acfa][^G^g] [Acfa][Gg] [=GA^ce=g][^F^f] [Gceg][Ff] | %70
 [=FAd=f][EG^ce]- [EGce][DFAd]- [DFAd][^C^c] [DGAd][Ee] | [FAdf][Ee] [Dd][A,DFA]- [A,DFA]4- | %72
 [A,DFA]4 z [FAd]- [FAd]^c | [FAd]3 (3A/B/^c/ [Gd]3 (3A/B/c/ | %74
 [Fd][Af] [FAd][Bdf]- [Bdf][FAd] [Bde]A | [Bde][FAdf] [Ae][GBd]- [GBd][G^c] [Gd][GBc] | %76
 [FAd]!>!=c [CEB](!>!f [FBd])!>!g [GBe]!>!a | [Acf]2 [^G^g][Acfa]- [Acfa][Aa] [Bb][=B=b] | %78
 [ceg_bc'][dd'] [A_da][Bcegb]- [Bcegb][Aa] [GBceg]2 | [FAcf]2 [GA^c]2 [FAd]2 [G,A,^C][F,A,D]- | %80
 [F,A,D] [Ee] [Ff][^G^g] [Aa][^c^c'] [dd'][ee'] | %81
 [fad'f'][eae'] [dd'][Adfa]- [Adfa]!8va(![aa'] [d'd''][e'e''] | %82
 [f'a'd''f''][e'a'e''] [d'd''][ad'f'a']- [ad'f'a'][cc'] [fbd'f'][gg'] | %83
 [ac'f'a'][gg'] [fbf'][cfac']- [cfac'][c'c'']!8va)!!8va(! [f'b'd''f''][g'g''] | %84
 [a'c''f''a''][g'g''] [f'f''][c'f'a'c'']- [c'f'a'c'']!8va)!!8va(![Aa] [Bb][=B=b] | %85
 [ceg_bc'][=b=b'] [c'e'g'b'_c''][=B=b] [ce_gac'][Bb] [cegac'][Bb]!8va)! | %86
"^loco" [_B_df_b][Aa] [G=dg][B_deb]- [Bdeb][Aa] [Gceg][^Gc^g] | %87
!8va(! [ac'f'a'][^g^g'] [ac'f'a'][gg'] [=g^c'_e'=g'][^f^f'] [gc'e'g'][ff'] | %88
 [=fad'=f'][eg^c'e']- [egc'e'][dfad']- [dfad'][^c^c'] [dgad'][ee'] | %89
 [fad'f'][ee'] [dd'][Acfa]- [Acfa][aa'] [d'd''][e'e''] | %90
 [f'a'd''f''][e'e''] [d'd''][ac'f'a']- [ac'f'a'][cc'] [fbd'f'][gg'] | %91
 [ac'f'a'][gg'] [fbf'][cfac']- [cfac'][c'c'']!8va)!!8va(! [f'b'd''f''][g'g''] | %92
 [a'c''f''a''][g'g''] [f'f''][c'f'a'c'']- [c'f'a'c'']!8va)!!8va(![dfad']- [dfad'][^c^c'] | %93
 [dfad']3 [dgad']- [dgad'][^c^c'] [dgad'][cc'] | %94
 [dfad'][ee'] [fad'f'][ee'] [fa^c'f'][dd'] [eac'e'][^d^d'] | %95
 [eae']2 [=dfa=d']2 [dgad'][^cga^c']- [cgac'][dfad']- | %96
 [dfad']c' [cfa]f' [fbd']g' [gbe'][ac'f'a']- | %97
 [ac'f'a']2 [^gc'^g'][ac'f'a']- [ac'f'a'][aa'] [b_e'_g'b'][=b=b'] | %98
 [c'=e'=g'_b'c''][d'd''] [aa'][bc'e'g'b']- [bc'e'g'b'][aa'] [gbe'g']2 | %99
 [fac'f']2!8va)!"^loco" [GA^c]2 [FAd]2 [G,A,^C][D,F,A,D]- | [D,F,A,D]8 |] %101
V:2
 [D,,F,,A,,D,]8 | [D,,G,,B,,D,]8 | [D,,F,,A,,D,]8 | !arpeggio![D,,A,,F,]8 | [D,,A,,F,]8 | %5
 [D,,B,,]8 | [D,,A,,D,]2 [C,,C,]2 [D,,F,,B,,D,]2 [E,,G,,B,,C,E,]2 | %7
 !arpeggio![F,,C,A,]2 [A,CF]2 [A,,A,]2 [_G,,_E,]2 | [=G,,=E,]2 [G,B,_DF]2 [C,,C,]2 [G,B,CE]2 | %9
 !arpeggio![F,,C,A,]2 A,,,2 D,,2 [G,,A,,^C,]2 |"^R.H." !///-!D,,2 D,,,2"_tremolo" z2 z2 || %11
 [D,,A,,F,]2 [A,DF]2 [E,,E,]2 [G,A,^C_E]2 | %12
 !arpeggio![F,,C,A,]2 [A,DF]2!8vb(! [A,,,A,,]2!8vb)! [G,A,^CE]2 | %13
 [D,,D,]2 [E,,E,]2 [F,,F,]2 [E,,E,]2 | %14
 !arpeggio![D,,A,,F,]2 A,2!8vb(! [A,,,A,,]2!8vb)! [G,A,^CE]2 | %15
 !arpeggio![F,,C,A,]2 [A,DF]2 [A,,A,]2 [G,A,^CE]2 | %16
 !arpeggio![F,,C,A,]2 [A,DF]2 [A,,A,]2 [G,A,^CE]2 | [D,,D,]2 [E,,E,]2 [F,,F,]2 [A,,A,]2 | %18
 !arpeggio![D,,A,,F,][A,DF]- [A,DF][DF]- [DFA]4 | [=B,DF_A]2 [G,A,B,D]2 [F,B,D]2 [G,A,B,D]2 | %20
 [A,CE]2 [CEA]2!8vb(! [A,,,A,,]2!8vb)! [^G,B,EF]2 | [=B,DF_A]2 [DFAB]2 [_A,B,DF]2 [F,D]2 | %22
 !arpeggio![A,,_E,C]2 [A,CE]2 [A,,A,]2 [G,A,^CE]2 | %23
 !arpeggio![D,,A,,F,]2 [A,DF]2 [E,,E,]2 [G,A,^CE]2 | %24
 !arpeggio![F,,C,A,]2 [A,DF]2!8vb(! [A,,,A,,]2!8vb)! [G,A,^CE]2 | %25
 [D,,D,]2!8vb(! [A,,,A,,]2!8vb)! [D,,D,]2!8vb(! [A,,,A,,]2!8vb)! | %26
!8vb(! [D,,,D,,]2!8vb)!!8vb(! A,,,2!8vb)!!8vb(! [E,,,E,,]2!8vb)! z2 | %27
 [D,,A,,]4 z !>![A,,,A,,] !>![D,,D,]!>![E,,E,] | %28
 !>![F,,F,]!>![E,,E,] !>![D,,D,]!>![A,,,A,,]- [A,,,A,,]2 !arpeggio![C,,G,,E,]2 | %29
 !arpeggio![F,,C,A,]4 z [C,,C,] [F,,F,][G,,G,] | %30
 [A,,A,][G,,G,] [F,,F,][C,,C,]- [C,,C,]2 [_G,,_E,]2 | [=G,,E,]2 [G,B,CE]2 [_G,,_E,]2 [_G,B,C_E]2 | %32
 [G,,B,,_D,F,]2 [G,B,_DF]2 [E,,G,,E,]2 [G,B,CE]2 | %33
 !arpeggio![G,,C,A,]2 [A,CF]2 [_E,,_E,]2 [G,A,^C]2 | %34
 [D,,D,][E,,E,]- [E,,E,][F,,F,]- [F,,F,]2 [E,,E,]2 | %35
 !arpeggio![D,,A,,F,]4 z [A,,,A,,] [F,,F,][G,,G,] | %36
 [F,,F,][_E,,_E,] [D,,D,][A,,,A,,]- [A,,,A,,]2 !arpeggio![C,,G,,E,]2 | %37
 !arpeggio![G,,D,B,]4 z [C,,C,] [F,,F,][G,,G,] | [A,,A,][G,,G,] [F,,F,][C,,C,]- [C,,C,]4 | %39
 [D,,A,,]4 [D,,B,,]4 | [D,,A,,]3 [D,,B,,]- [D,,B,,]2 [D,,B,,]2 | %41
 [D,,A,,]3 [D,,B,,]- [D,,B,,]2 [D,,B,,]2 | [D,,A,,D,]2 [C,,C,]2 [D,,F,,B,,D,]2 [E,,G,,B,,C,E,]2 | %43
 !arpeggio![F,,C,A,]2 [A,CF]2 [A,,A,]2 [_G,,_E,]2 | [=G,,=E,]2 [G,B,_DF]2 [C,,C,]2 [G,B,C=E]2 | %45
 !arpeggio![F,,C,A,]2 A,,,2 D,,2 [G,,A,,^C,]2 |"^R.H." !///-!D,,2 D,,,2"_tremolo" z2 z2 | %47
 [D,,A,,F,]2 [A,DF]2 [E,,E,]2 [G,A,^C_E]2 | %48
 !arpeggio![F,,C,A,]2 [A,DF]2!8vb(!!8vb(! [A,,,A,,]2!8vb)!!8vb)! [G,A,^CE]2 | %49
 [D,,D,]2 [E,,E,]2 [F,,F,]2 [E,,E,]2 | %50
 !arpeggio![D,,A,,F,]2 A,2!8vb(!!8vb(! [A,,,A,,]2!8vb)!!8vb)! [G,A,^CE]2 | %51
 !arpeggio![F,,C,A,]2 [A,DF]2 [A,,A,]2 [G,A,^CE]2 | %52
 !arpeggio![F,,C,A,]2 [A,DF]2 [A,,A,]2 [G,A,^CE]2 | [D,,D,]2 [E,,E,]2 [F,,F,]2 [A,,A,]2 | %54
 !arpeggio![D,,A,,F,][A,DF]- [A,DF][DF]- [DFA]4 | [=B,DF_A]2 [G,A,B,D]2 [F,B,D]2 [G,A,B,D]2 | %56
 [A,CE]2 [CEA]2!8vb(!!8vb(! [A,,,A,,]2!8vb)!!8vb)! [^G,B,EF]2 | %57
 [=B,DF_A]2 [DFAB]2 [_A,B,DF]2 [F,D]2 | !arpeggio![A,,_E,C]2 [A,CE]2 [A,,A,]2 [G,A,^CE]2 | %59
 !arpeggio![D,,A,,F,]2 [A,DF]2 [E,,E,]2 [G,A,^CE]2 | %60
 !arpeggio![F,,C,A,]2 [A,DF]2!8vb(!!8vb(! [A,,,A,,]2!8vb)!!8vb)! [G,A,^CE]2 | %61
 [D,,D,]2!8vb(!!8vb(! [A,,,A,,]2!8vb)!!8vb)! [D,,D,]2!8vb(!!8vb(! [A,,,A,,]2!8vb)!!8vb)! | %62
!8vb(!!8vb(! [D,,,D,,]2!8vb)!!8vb)!!8vb(!!8vb(! A,,,2!8vb)!!8vb)!!8vb(!!8vb(! [E,,,E,,]2!8vb)!!8vb)! z2 | %63
 [D,,A,,]4 z !>![A,,,A,,] !>![D,,D,]!>![E,,E,] | %64
 !>![F,,F,]!>![E,,E,] !>![D,,D,]!>![A,,,A,,]- [A,,,A,,]2 !arpeggio![C,,G,,E,]2 | %65
 !arpeggio![F,,C,A,]4 z [C,,C,] [F,,F,][G,,G,] | %66
 [A,,A,][G,,G,] [F,,F,][C,,C,]- [C,,C,]2 [_G,,_E,]2 | [=G,,E,]2 [G,B,CE]2 [_G,,_E,]2 [_G,B,C_E]2 | %68
 [G,,B,,_D,F,]2 [G,B,_DF]2 [E,,G,,E,]2 [G,B,CE]2 | %69
 !arpeggio![G,,C,A,]2 [A,CF]2 [_E,,_E,]2 [G,A,^C]2 | %70
 [D,,D,][E,,E,]- [E,,E,][F,,F,]- [F,,F,]2 [E,,E,]2 | %71
 !arpeggio![D,,A,,F,]4 z [A,,,A,,] [F,,F,][G,,G,] | [A,,A,][G,,G,] [F,,F,][C,,C,]- [C,,C,]4 | %73
 [D,A,]4 [D,B,]4 | [D,A,]3 B, [D,A,]3 B, | [D,A,]2 (D,B,-) B,(D, B,)D, | %76
 A,2 [C,,C,]2 [D,,F,,B,,D,]2 [E,,G,,B,,C,E,]2 | [F,,C,B,]2 [A,CF]2 [A,,A,]2 [F,,_E,]2 | %78
 [G,,E,]2 [G,_B,_DE]2 [C,,G,,E,]2 [G,B,CE]2 | [F,,F,]2 [C,,A,,]2 [D,,D,]2 [A,,,A,,]2 | %80
 [D,,D,]2 [E,,E,]2 [F,,F,]2 [E,,E,]2 | [D,,A,,F,]2 [A,DF]2 [A,,A,]2 [A,^C_EG]2 | %82
 [D,,A,,F,]2 [A,DF]2 [D,,A,,D,]2 [C,,G,,E,]2 | [F,,C,A,]2 [_A,_DF][=A,CF]- [A,CF]2 [C,,C,]2 | %84
 !arpeggio![F,,C,A,]2 [CFA]2 [A,,A,]2 [_G,,_E,]2 | [=G,,E,]2 [G,B,CE]2 [_G,,_E,]2 [_G,B,C_E]2 | %86
 [=G,,B,,_D,F,]2 [B,_DF]2 [C,,G,,E,]2 [=G,B,CE]2 | %87
 !arpeggio![F,,C,A,]2 [A,CF]2 [_E,,_E,]2 [G,A,^CE]2 | %88
 [D,,D,][E,,E,]- [E,,E,][F,,F,]- [F,,F,]2 [E,,E,]2 | %89
 [D,,A,,F,]2 [_A,_DF][=A,CF]- [A,CF]2!8vb(! [A,,,A,,]2!8vb)! | %90
 !arpeggio![D,,A,,F,]2 [A,DF]2 [D,,D,]2 !arpeggio![C,,G,,E,]2 | %91
 !arpeggio![G,,C,A,]2 [_A,_DF][=A,CF]- [A,CF]2 !arpeggio![C,,G,,E,]2 | %92
 !arpeggio![F,,C,A,]2 [A,CF][CF]- [CFA]2 z2 | [D,,A,,F,]2 [A,DF]2 [E,,E,]2 [G,A,^CE]2 | %94
 [F,,C,A,]2 [A,DF]2 [E,,A,,E,]2 [G,A,^CE]2 | [E,,A,,E,]2 [A,DF]2 [E,,E,]2 [G,A,^CE]2 | %96
 [D,,A,,F,]C,, [F,,A,,C,]D,, [F,,B,,D,]E,, [G,,B,,C,E,]2 | [F,,C,A,]2 [A,CF]2 [A,,A,]2 [_G,,_E,]2 | %98
 [=G,,=E,]2 [G,B,C_E]2 [C,,G,,E,]2 [G,B,CE]2 | [F,,C,A,]2 [A,,,A,,]2 [D,,D,]2 [A,,,A,,]2 | %100
 !///-!D,,4"_tremolo" D,,,4 |] %101
V:3
 x8 | x8 | z2 z2 z2 !>!F2 | x8 | [A,D]8 | x8 | x8 | x8 | x8 | x8 | x8 || x8 | x8 | x8 | x8 | x8 | %16
 x8 | x8 | x8 | x8 | x8 |!8va(! x2!8va)! x6 | x8 | x8 | x8 | x8 | x8 | x8 | x8 | x8 | x8 | x8 | %32
 x8 | x8 | x8 | x8 | x8 | x8 | x8 | x8 | x8 | x8 | x8 | x8 | x8 | x8 | x8 | x8 | x8 | x8 | x8 | %51
 x8 | x8 | x8 | x8 | x8 | x8 |!8va(!!8va(! x2!8va)!!8va)! x6 | x8 | x8 | x8 | x8 | x8 | x8 | x8 | %65
 x8 | x8 | x8 | x8 | x8 | x8 | x8 | x8 | x8 | x8 | x8 | x8 | x8 | x8 | x8 | x8 | x5!8va(! x3 | x8 | %83
 x6!8va)!!8va(! x2 | x5!8va)!!8va(! x3 | x8!8va)! | x8 |!8va(! x8 | x8 | x8 | x8 | %91
 x6!8va)!!8va(! x2 | x5!8va)!!8va(! x3 | x8 | x8 | x8 | x8 | x8 | x8 | x2!8va)! x6 | x8 |] %101
V:4
 x8 | x8 | x8 | x8 | x8 | x8 | x8 | x8 | x8 | x6 A,,,2 | [F,,A,,D,]8 || x8 | x4!8vb(! x2!8vb)! x2 | %13
 x8 | x4!8vb(! x2!8vb)! x2 | x8 | x8 | x8 | x8 | x8 | x4!8vb(! x2!8vb)! x2 | x8 | x8 | x8 | %24
 x4!8vb(! x2!8vb)! x2 | x2!8vb(! x2!8vb)! x2!8vb(! x2!8vb)! | %26
!8vb(! x2!8vb)!!8vb(! x2!8vb)!!8vb(! x2!8vb)! x2 | x8 | x8 | x8 | x8 | x8 | x8 | x8 | x8 | x8 | %36
 x8 | x8 | x8 | x8 | x8 | x8 | x8 | x8 | x8 | x6 A,,,2 | [F,,A,,D,]8 | x8 | %48
 x4!8vb(!!8vb(! x2!8vb)!!8vb)! x2 | x8 | x4!8vb(!!8vb(! x2!8vb)!!8vb)! x2 | x8 | x8 | x8 | x8 | %55
 x8 | x4!8vb(!!8vb(! x2!8vb)!!8vb)! x2 | x8 | x8 | x8 | x4!8vb(!!8vb(! x2!8vb)!!8vb)! x2 | %61
 x2!8vb(!!8vb(! x2!8vb)!!8vb)! x2!8vb(!!8vb(! x2!8vb)!!8vb)! | %62
!8vb(!!8vb(! x2!8vb)!!8vb)!!8vb(!!8vb(! x2!8vb)!!8vb)!!8vb(!!8vb(! x2!8vb)!!8vb)! x2 | x8 | x8 | %65
 x8 | x8 | x8 | x8 | x8 | x8 | x8 | x8 | x8 | x8 | x8 | x8 | x8 | x8 | x8 | x8 | x8 | x8 | x8 | %84
 x8 | x8 | x8 | x8 | x8 | x6!8vb(! x2!8vb)! | x8 | x8 | x8 | x8 | x8 | x8 | x8 | x8 | x8 | x8 | %100
 x8 |] %101

